X: 671
T: After The Battle Of Aughrim
R: march
M: 
K: Adorian
M:4/4
AG|:"Am"E2A2 ABcd|e2d2 c2A2|"G"B2G2 GFGA|BGAG E2D2|
"Am"E2A2 A2 (3Bcd|e2 ed e2 ag|"G"e2d2 BedB|1 "Am"A4 A2 AG:|2 "Am"A6 e2||
|:"Am"a2 ag e2 (3efg|abag e2 (3efg|a2 af "Em"g2 ge|"G"dedB G4|
"Am"abag e2 (3efg|abag e2d2|"Em"B2e2 "G"d2B2|1 "Am"A6 e2:|2 "Am"A6 AG||

